recalbox-backport/amstradcpc/data/logo.svg

<svg xmlns="http://www.w3.org/2000/svg" viewBox="0 0 44.384 18.138"><path fill="#9c2249" d="M28.243 0h9.806l-9.136 18.138h-9.806z"/><path d="M1.386 3.153L0 14.917h2.155l.22-2.427 1.023.011.174 2.416h2.344L4.31 3.16l-2.924-.007zm1.485 2.031l.333 5.367h-.679l.346-5.367zM6.358 3.181l.02 11.746h2.254l-.008-6.865.928 6.865h1.436l.906-6.865-.004 6.865h2.283V3.181H10.99l-.731 5.232-.597-5.232zM20.596 3.272l.004 1.826h1.199v9.79h2.485v-9.79h1.284V3.272zM17.319 3.283c-1.422-.004-1.953-.195-2.382.367-.546.714-.324 2.181-.323 3.886.001 1.376 3.15 2.09 3.168 2.921v2.294c-.002.359-.793.245-.791-.086v-2.524h-2.397l.034 1.972c-.054 2.485-.035 2.853 2.898 2.844 1.398-.005 1.721-.023 1.988-.18.175-.103.419-.394.54-.646.204-.422.218-.625.187-2.573l.009-1.945c.003-.5-1.15-1.352-1.768-1.673-.708-.367-1.475-.402-1.491-1.651-.014-1.015-.026-1.199.416-1.203.481-.003.347.202.375 2.103h2.515c-.001-4.062-.155-3.897-2.978-3.906zM26.079 3.302l.076 11.608h2.381l.015-4.688c.854.014.79-.281.735 4.735l2.517.01c-.088-4.611.098-4.879-1.043-5.82 1.018-.641.927-1.034.949-2.953.021-1.839-.042-2.095-.574-2.589-.482-.446-.923-.371-5.056-.303zm2.453 1.809c.933.027.755.259.755 1.457 0 1.251.157 1.514-.761 1.521l.006-2.978zM38.777 3.442s-.161 11.336-.085 11.522v.003L43.01 15c1.588.013 1.336-1.061 1.367-5.612.036-5.226-.02-5.946-1.186-5.946h-4.414zm3.139 5.697c.03 3.815.073 3.91-.646 3.936l-.053-7.888c.771 0 .673.615.699 3.952zM33.724 3.318l-1.386 11.765h2.155l.22-2.428 1.023.011.174 2.417h2.344L36.648 3.325l-2.924-.007zm1.485 2.032l.333 5.367h-.679l.346-5.367z"/></svg>

<?xml version="1.0" encoding="UTF-8" standalone="no"?>
<svg
   xmlns:dc="http://purl.org/dc/elements/1.1/"
   xmlns:cc="http://creativecommons.org/ns#"
   xmlns:rdf="http://www.w3.org/1999/02/22-rdf-syntax-ns#"
   xmlns:svg="http://www.w3.org/2000/svg"
   xmlns="http://www.w3.org/2000/svg"
   xmlns:sodipodi="http://sodipodi.sourceforge.net/DTD/sodipodi-0.dtd"
   xmlns:inkscape="http://www.inkscape.org/namespaces/inkscape"
   viewBox="0 0 47 18.138"
   version="1.1"
   id="svg6"
   sodipodi:docname="logo.svg"
   width="47"
   height="18.138"
   inkscape:version="0.92.4 5da689c313, 2019-01-14">
  <metadata
     id="metadata12">
    <rdf:RDF>
      <cc:Work
         rdf:about="">
        <dc:format>image/svg+xml</dc:format>
        <dc:type
           rdf:resource="http://purl.org/dc/dcmitype/StillImage" />
      </cc:Work>
    </rdf:RDF>
  </metadata>
  <defs
     id="defs10" />
  <sodipodi:namedview
     pagecolor="#ffffff"
     bordercolor="#666666"
     borderopacity="1"
     objecttolerance="10"
     gridtolerance="10"
     guidetolerance="10"
     inkscape:pageopacity="0"
     inkscape:pageshadow="2"
     inkscape:window-width="471"
     inkscape:window-height="442"
     id="namedview8"
     showgrid="false"
     inkscape:zoom="6.105804"
     inkscape:cx="22.191999"
     inkscape:cy="9.0689998"
     inkscape:window-x="0"
     inkscape:window-y="0"
     inkscape:window-maximized="0"
     inkscape:current-layer="svg6" />
  <path
     d="m 28.243,0 h 9.806 l -9.136,18.138 h -9.806 z"
     id="path2"
     inkscape:connector-curvature="0"
     style="fill:#9c2249" />
  <path
     d="M 1.386,3.153 0,14.917 h 2.155 l 0.22,-2.427 1.023,0.011 0.174,2.416 H 5.916 L 4.31,3.16 Z m 1.485,2.031 0.333,5.367 H 2.525 Z M 6.358,3.181 6.378,14.927 H 8.632 L 8.624,8.062 9.552,14.927 h 1.436 l 0.906,-6.865 -0.004,6.865 h 2.283 V 3.181 H 10.99 L 10.259,8.413 9.662,3.181 Z M 20.596,3.272 20.6,5.098 h 1.199 v 9.79 h 2.485 v -9.79 h 1.284 V 3.272 Z M 17.319,3.283 C 15.897,3.279 15.366,3.088 14.937,3.65 c -0.546,0.714 -0.324,2.181 -0.323,3.886 10e-4,1.376 3.15,2.09 3.168,2.921 v 2.294 c -0.002,0.359 -0.793,0.245 -0.791,-0.086 v -2.524 h -2.397 l 0.034,1.972 c -0.054,2.485 -0.035,2.853 2.898,2.844 1.398,-0.005 1.721,-0.023 1.988,-0.18 0.175,-0.103 0.419,-0.394 0.54,-0.646 0.204,-0.422 0.218,-0.625 0.187,-2.573 L 20.25,9.613 C 20.253,9.113 19.1,8.261 18.482,7.94 17.774,7.573 17.007,7.538 16.991,6.289 16.977,5.274 16.965,5.09 17.407,5.086 c 0.481,-0.003 0.347,0.202 0.375,2.103 h 2.515 C 20.296,3.127 20.142,3.292 17.319,3.283 Z m 8.76,0.019 0.076,11.608 h 2.381 l 0.015,-4.688 c 0.854,0.014 0.79,-0.281 0.735,4.735 l 2.517,0.01 C 31.715,10.356 31.901,10.088 30.76,9.147 31.778,8.506 31.687,8.113 31.709,6.194 31.73,4.355 31.667,4.099 31.135,3.605 30.653,3.159 30.212,3.234 26.079,3.302 Z m 2.453,1.809 c 0.933,0.027 0.755,0.259 0.755,1.457 0,1.251 0.157,1.514 -0.761,1.521 z M 38.777,3.442 c 0,0 -0.161,11.336 -0.085,11.522 v 0.003 L 43.01,15 c 1.588,0.013 1.336,-1.061 1.367,-5.612 0.036,-5.226 -0.02,-5.946 -1.186,-5.946 z m 3.139,5.697 c 0.03,3.815 0.073,3.91 -0.646,3.936 L 41.217,5.187 c 0.771,0 0.673,0.615 0.699,3.952 z M 33.724,3.318 32.338,15.083 h 2.155 l 0.22,-2.428 1.023,0.011 0.174,2.417 h 2.344 L 36.648,3.325 Z m 1.485,2.032 0.333,5.367 h -0.679 z"
     id="path4"
     inkscape:connector-curvature="0" />
</svg>
